icons/medicine_bottle_fill.svg

<svg width="48" height="48" viewBox="0 0 48 48" fill="none" xmlns="http://www.w3.org/2000/svg">
<path fill-rule="evenodd" clip-rule="evenodd" d="M9 7C9 5.34315 10.3431 4 12 4H36C37.6569 4 39 5.34315 39 7V15C39 16.6569 37.6569 18 36 18V41C36 42.6569 34.6569 44 33 44H15C13.3431 44 12 42.6569 12 41L12 18C10.3431 18 9 16.6569 9 15V7ZM16 16L16 6H12C11.4477 6 11 6.44772 11 7V15C11 15.5523 11.4477 16 12 16H16ZM18 16H23L23 6H18V16ZM25 16H30V6H25V16ZM32 16H36C36.5523 16 37 15.5523 37 15V7C37 6.44772 36.5523 6 36 6H32V16ZM23 30V35H25V30H30V28H25V23H23V28H18V30H23Z" fill="black"/>
</svg>

<svg
  xmlns="http://www.w3.org/2000/svg"
  width="24"
  height="24"
  viewBox="0 0 24 24"
  fill="none"
  stroke="currentColor"
  stroke-width="2"
  stroke-linecap="round"
  stroke-linejoin="round"
>
  <path
    fill-rule="evenodd"
    d="M9 7a3 3 0 0 1 3-3h24a3 3 0 0 1 3 3v8a3 3 0 0 1-3 3v23a3 3 0 0 1-3 3H15a3 3 0 0 1-3-3V18a3 3 0 0 1-3-3zm7 9V6h-4a1 1 0 0 0-1 1v8a1 1 0 0 0 1 1zm2 0h5V6h-5zm7 0h5V6h-5zm7 0h4a1 1 0 0 0 1-1V7a1 1 0 0 0-1-1h-4zm-9 14v5h2v-5h5v-2h-5v-5h-2v5h-5v2z"
    clip-rule="evenodd"
  />
</svg>
